packages/icons/src/SVG/restore.svg

<svg width="12" height="12" viewBox="0 0 12 12" >
<path d="M12 0H0V6H1V3H11V11H6V12H12V0Z" />
<path d="M4.44975 6.5L5.51041 7.56066L2.53553 10.5355L4 12H0V8L1.47487 9.47487L4.44975 6.5Z" />
</svg>

<!-- Generated by IcoMoon.io -->
<svg version="1.1" xmlns="http://www.w3.org/2000/svg" width="12" height="12" viewBox="0 0 12 12">
<title>restore</title>
<path d="M12 0h-12v6h1v-3h10v8h-5v1h6v-12z"></path>
<path d="M4.45 6.5l1.061 1.061-2.975 2.975 1.464 1.465h-4v-4l1.475 1.475 2.975-2.975z"></path>
</svg>
